!!!OTL: Canjun baojiaYuan
!!!ARE: Asia, China,ÿJiangsu Yixing
!! III, 468, 1)
!!!SCT: C2031
!!!YEM: Copyright 1995, estate of Helmut Schaffrath.
**kern
*ICvox
*Ivox
*M2/4
*k[]
*C:
{8a
16g
16a
16a
16cc
16g
16a
=1
16cc
16dd
16cc
16a
4g
=2
16g
16a
8cc
8cc
8e
=3
8.d
16c
4d}
=4
{8d
16d
16e
4g
=5
16a
16g
16e
16d
4c
=6
16c
16d
16e
16g
16d
16e
16c
16B
=7
8.A
16G
4A}
==
!!!AGN: Xiaodiao
!!!AMT: simple duple
!!!AIN: vox
!!!EED: Helmut Schaffrath
!!!EEV: 1.0
*-
